static/DET.svg

<?xml version="1.0" encoding="UTF-8"?>
<svg width="150px" height="150px" viewBox="0 0 150 150" version="1.1" xmlns="http://www.w3.org/2000/svg" xmlns:xlink="http://www.w3.org/1999/xlink">
    <!-- Generator: Sketch 50.2 (55047) - http://www.bohemiancoding.com/sketch -->
    <title>DET</title>
    <desc>Created with Sketch.</desc>
    <defs>
        <polygon id="path-1" points="100.0002 0.0001 100.0002 100.000204 0.0002 100.000204 0.0002 0.0001"></polygon>
    </defs>
    <g id="DET" stroke="none" stroke-width="1" fill="none" fill-rule="evenodd">
        <g id="Page-1" transform="translate(25.000000, 25.000000)">
            <g id="Group-3">
                <mask id="mask-2" fill="white">
                    <use xlink:href="#path-1"></use>
                </mask>
                <g id="Clip-2"></g>
                <path d="M98.0002,50.0001 C98.0002,76.5091 76.5092,98.0001 50.0002,98.0001 C23.4892,98.0001 2.0002,76.5091 2.0002,50.0001 C2.0002,23.4901 23.4892,2.0001 50.0002,2.0001 C76.5092,2.0001 98.0002,23.4901 98.0002,50.0001" id="Fill-1" stroke="#FFFFFF" fill="#B4B2B2" mask="url(#mask-2)"></path>
            </g>
            <path d="M96.6223,50.0001 C96.6223,75.7491 75.7483,96.6231 50.0003,96.6231 C24.2503,96.6231 3.3773,75.7491 3.3773,50.0001 C3.3773,24.2501 24.2503,3.3771 50.0003,3.3771 C75.7483,3.3771 96.6223,24.2501 96.6223,50.0001" id="Fill-4" fill="#1D428A"></path>
            <path d="M50.0001,89.7551 C28.0421,89.7551 10.2431,71.9561 10.2431,50.0001 C10.2431,28.0421 28.0421,10.2441 50.0001,10.2441 C71.9571,10.2441 89.7571,28.0421 89.7571,50.0001 C89.7571,71.9561 71.9571,89.7551 50.0001,89.7551 Z" id="Fill-6" fill="#C8102E"></path>
            <path d="M49.9997,87.4752 C34.1207,87.4752 20.5267,77.5442 15.0777,63.5722 C21.7407,72.6912 34.8937,78.9122 49.9997,78.9122 C65.1067,78.9122 78.2587,72.6912 84.9227,63.5722 C79.4737,77.5442 65.8787,87.4752 49.9997,87.4752 M49.9997,12.5232 C65.8787,12.5232 79.4747,22.4552 84.9227,36.4292 C78.2587,27.3102 65.1077,21.0882 49.9997,21.0882 C34.8927,21.0882 21.7407,27.3102 15.0777,36.4292 C20.5257,22.4552 34.1207,12.5232 49.9997,12.5232 M12.5527,51.1692 L19.8697,51.1692 L19.8697,48.8302 L12.5527,48.8302 C12.5807,47.9452 12.6277,47.0642 12.7157,46.1962 C15.3087,33.1422 31.0357,23.0682 49.9997,23.0682 C68.9627,23.0682 84.6907,33.1422 87.2847,46.1972 C87.3727,47.0652 87.4207,47.9452 87.4477,48.8302 L80.1297,48.8302 L80.1297,51.1692 L87.4477,51.1692 C87.4207,52.0552 87.3727,52.9352 87.2847,53.8042 C84.6907,66.8582 68.9627,76.9312 49.9997,76.9312 C31.0357,76.9312 15.3087,66.8592 12.7157,53.8042 C12.6277,52.9352 12.5807,52.0552 12.5527,51.1692 M49.9997,10.2432 C28.0787,10.2432 10.2437,28.0782 10.2437,50.0002 C10.2437,71.9212 28.0787,89.7552 49.9997,89.7552 C71.9217,89.7552 89.7567,71.9212 89.7567,50.0002 C89.7567,28.0782 71.9217,10.2432 49.9997,10.2432" id="Fill-8" fill="#FEFEFE"></path>
            <polygon id="Fill-10" fill="#FEFEFE" points="33.2004 63.6685 36.0134 63.6685 36.0134 51.0385 33.2014 51.0385"></polygon>
            <path d="M43.9753,51.0445 L43.8903,51.0445 C43.1003,51.0385 40.2293,51.0275 39.6783,51.0385 L39.5353,51.0465 C38.6863,51.0465 38.1473,51.4495 38.0153,52.1805 C37.9923,52.2995 37.9913,52.3905 37.9923,52.3905 C37.9893,52.4165 37.7973,54.7835 38.0303,55.4515 C38.4073,56.5385 39.2843,56.9405 40.0913,57.1905 C40.1183,57.1975 40.1453,57.2065 40.1753,57.2145 C40.2263,57.2275 40.2803,57.2415 40.3313,57.2635 C40.4203,57.2995 40.4823,57.3475 40.5193,57.4075 L40.5313,61.9555 L38.2103,61.9625 L38.2193,63.6455 L41.2713,63.6485 L41.2733,63.6485 C42.3333,63.6025 43.0633,63.1385 43.3343,62.3375 C43.4113,61.7205 43.4213,57.4855 43.3603,56.6015 C43.3413,56.2675 43.1883,55.9995 42.8803,55.7565 C42.7603,55.6635 42.6123,55.5675 42.4233,55.4625 C42.2563,55.3755 42.0763,55.2865 41.9023,55.2065 C41.2433,54.8845 40.4953,54.5185 40.4953,53.6775 L40.4973,52.9585 L42.7053,52.9585 C43.1583,52.9585 43.5193,52.7365 43.7543,52.3185 C43.9323,51.9985 43.9803,51.6785 43.9793,51.6605 C43.9983,51.4515 43.9883,51.2575 43.9803,51.1295 L43.9753,51.0445 Z" id="Fill-12" fill="#FEFEFE"></path>
            <path d="M55.9006,53.8814 C55.9136,53.5484 55.9416,53.2984 55.9876,53.1014 L56.0376,53.0524 C56.1636,53.0324 56.2856,53.0244 56.4346,53.0244 L56.4916,53.0254 C57.4446,53.0364 57.4716,53.3224 57.4716,55.0474 L57.4716,60.3214 C57.4716,60.4794 57.4716,60.6274 57.4616,60.7834 C57.4546,60.9344 57.4376,61.0774 57.4096,61.2104 L57.3586,61.2604 C57.1916,61.2844 57.0306,61.2974 56.8566,61.2974 C56.5066,61.2974 56.2636,61.2214 56.1126,61.0664 C55.8886,60.8354 55.8816,60.4494 55.8956,60.0044 L55.8956,54.6784 C55.8956,54.6784 55.8906,54.0864 55.9006,53.8814 M56.8276,51.0334 C56.1946,51.0334 55.5346,51.0544 55.0036,51.2044 C53.6266,51.5364 52.9566,52.4564 52.9566,54.0174 L52.9566,61.5304 C52.9566,63.4554 54.3336,63.8504 56.4006,63.8504 C58.9056,63.8504 60.3416,62.9654 60.3416,61.4244 L60.3456,53.5934 C60.3456,51.0334 58.7146,51.0334 56.8276,51.0334" id="Fill-14" fill="#FEFEFE"></path>
            <path d="M66.8616,56.4059 C65.5186,51.5429 63.3636,50.9999 62.4706,50.9999 C62.2386,50.9999 62.0986,51.0369 62.0936,51.0389 L62.0266,51.0569 L62.0256,63.6769 L64.8726,63.6809 L64.8726,58.6039 L66.8556,63.6809 L69.7496,63.6809 L69.7496,51.0509 L66.8616,51.0509 L66.8616,56.4059 Z" id="Fill-16" fill="#FEFEFE"></path>
            <path d="M28.6423,56.6422 L27.0603,56.6442 L27.0603,52.9762 C27.0603,52.9762 27.9203,52.9592 28.0483,52.9762 C28.3603,53.0162 28.6493,53.1372 28.6493,53.5122 C28.6493,53.6342 28.6423,56.6422 28.6423,56.6422 M29.7783,51.0342 L22.6823,51.0432 L22.5953,51.0442 L22.5913,51.1302 C22.5903,51.1452 22.5303,52.6332 24.1903,52.9792 L24.1903,63.6722 L27.1003,63.6722 L27.1003,58.2982 L29.5483,58.2982 C30.8403,58.2982 31.5813,57.4482 31.5813,55.9662 L31.5883,55.5142 C31.5883,51.9362 31.4433,51.2192 29.7783,51.0342" id="Fill-18" fill="#FEFEFE"></path>
            <path d="M52.0832,51.0538 L45.5012,51.0538 L45.5012,53.0398 L47.3772,53.0398 L47.3772,63.6908 L50.2702,63.6888 L50.2722,53.0278 C50.3082,53.0298 50.3432,53.0308 50.3772,53.0308 C50.8942,53.0308 51.3062,52.8728 51.6012,52.5608 C52.1262,52.0088 52.0892,51.1758 52.0882,51.1398 L52.0832,51.0538 Z" id="Fill-20" fill="#FEFEFE"></path>
            <path d="M77.4143,51.0445 L77.3293,51.0445 C76.5383,51.0385 73.6683,51.0275 73.1163,51.0385 L72.9743,51.0465 C72.1253,51.0465 71.5863,51.4495 71.4543,52.1805 C71.4313,52.2995 71.4313,52.3905 71.4313,52.3905 C71.4283,52.4165 71.2353,54.7835 71.4693,55.4515 C71.8463,56.5385 72.7233,56.9405 73.5293,57.1905 C73.5573,57.1975 73.5843,57.2065 73.6133,57.2145 C73.6653,57.2275 73.7183,57.2415 73.7693,57.2635 C73.8583,57.2995 73.9213,57.3475 73.9583,57.4075 L73.9703,61.9555 L71.6493,61.9625 L71.6573,63.6455 L74.7103,63.6485 L74.7133,63.6485 C75.7713,63.6025 76.5023,63.1385 76.7733,62.3375 C76.8503,61.7205 76.8603,57.4855 76.8003,56.6015 C76.7793,56.2675 76.6273,55.9995 76.3183,55.7565 C76.1983,55.6635 76.0513,55.5675 75.8623,55.4625 C75.6943,55.3755 75.5153,55.2865 75.3423,55.2065 C74.6813,54.8845 73.9353,54.5185 73.9353,53.6775 L73.9363,52.9585 L76.1433,52.9585 C76.5973,52.9585 76.9583,52.7365 77.1923,52.3185 C77.3703,51.9985 77.4193,51.6785 77.4183,51.6605 C77.4373,51.4515 77.4283,51.2575 77.4193,51.1295 L77.4143,51.0445 Z" id="Fill-22" fill="#FEFEFE"></path>
            <path d="M51.5979,38.0899 L52.0769,38.0889 L52.1529,38.0899 C52.8889,38.1019 53.1629,38.1059 53.1439,39.4019 C53.1459,40.4359 53.1439,40.5009 53.1229,41.0109 L53.1209,41.1079 C53.1229,41.2569 53.0599,41.4209 52.9649,41.5189 C52.8979,41.5869 52.8189,41.6209 52.7299,41.6209 L51.5979,41.6209 L51.5979,38.0899 Z M51.5899,43.2449 L52.0779,43.2449 C52.5479,43.2549 53.3359,43.3989 53.3359,44.2429 C53.3359,44.6459 53.3719,45.9089 53.3859,46.3829 L53.3919,46.5729 C53.3949,46.6429 53.4259,47.2609 53.4559,47.3779 C53.6579,48.1139 54.2299,48.5549 55.1229,48.6509 L55.9469,48.6509 L55.9469,44.1559 C55.9469,43.7699 55.7369,43.2299 55.4339,42.8439 L55.3739,42.7619 C55.8259,42.2549 56.0009,41.7439 56.0009,40.9639 L56.0039,40.5249 C56.0039,37.0329 55.8649,36.3339 54.2439,36.1539 L48.7799,36.1539 L48.7799,48.4809 L51.5899,48.4809 L51.5899,43.2449 Z" id="Fill-24" fill="#FEFEFE"></path>
            <polygon id="Fill-26" fill="#FEFEFE" points="69.0374 36.1539 66.2964 36.1539 66.2874 48.4739 69.0374 48.4759"></polygon>
            <path d="M42.7175,48.4923 L45.5385,48.4883 L45.5425,38.0753 C45.5775,38.0763 45.6115,38.0773 45.6455,38.0773 C46.1515,38.0773 46.5545,37.9233 46.8425,37.6183 C47.3535,37.0803 47.3165,36.2693 47.3145,36.2363 L47.3105,36.1533 L40.8875,36.1533 L40.8875,38.0883 L42.7175,38.0883 L42.7175,48.4923 Z" id="Fill-28" fill="#FEFEFE"></path>
            <path d="M72.3108,48.4923 L75.1338,48.4883 L75.1338,38.0753 C75.1688,38.0763 75.2048,38.0773 75.2378,38.0773 C75.7458,38.0773 76.1488,37.9223 76.4378,37.6183 C76.9488,37.0793 76.9128,36.2693 76.9108,36.2363 L76.9058,36.1533 L70.4818,36.1533 L70.4818,38.0883 L72.3108,38.0883 L72.3108,48.4923 Z" id="Fill-30" fill="#FEFEFE"></path>
            <polygon id="Fill-32" fill="#FEFEFE" points="39.4104 46.4991 36.4564 46.4991 36.4564 43.5041 38.4814 43.5041 38.4814 40.8211 36.4564 40.8211 36.4564 38.0471 39.4104 38.0471 39.4104 36.1541 33.7154 36.1541 33.7054 48.4741 39.4104 48.4741"></polygon>
            <path d="M29.1575,46.4991 L27.5965,46.4991 L27.5965,38.0861 C28.5635,38.0461 28.7685,38.1311 28.7845,38.1391 C29.1485,38.2821 29.1415,38.9571 29.1415,38.9751 C29.2435,39.9491 29.1685,45.7241 29.1575,46.4991 M30.1315,36.1541 L23.1055,36.1541 L23.0955,36.2291 C23.0905,36.2591 23.0065,36.9671 23.4625,37.5061 C23.7515,37.8501 24.1925,38.0421 24.7785,38.0801 L24.7785,48.4591 L30.0105,48.4591 C31.2035,48.4591 32.0045,47.4451 32.0045,45.9371 L32.0065,40.2191 C32.0085,37.0641 32.0095,36.2161 30.1315,36.1541" id="Fill-34" fill="#FEFEFE"></path>
            <path d="M60.3772,38.9415 C60.3912,38.6155 60.4192,38.3715 60.4642,38.1765 L60.5152,38.1295 C60.6382,38.1105 60.7602,38.1025 60.9072,38.1025 L60.9632,38.1025 C61.9102,38.1145 61.9372,38.3955 61.9372,40.0825 L61.9372,45.2435 C61.9372,45.3985 61.9372,45.5435 61.9272,45.6965 C61.9192,45.8435 61.9022,45.9835 61.8762,46.1135 L61.8242,46.1625 C61.6592,46.1875 61.4992,46.1995 61.3262,46.1995 C60.9812,46.1995 60.7392,46.1245 60.5892,45.9725 C60.3662,45.7465 60.3592,45.3695 60.3732,44.9335 L60.3732,39.7205 C60.3732,39.7205 60.3682,39.1415 60.3772,38.9415 M61.2982,36.1545 C60.6702,36.1545 60.0152,36.1735 59.4872,36.3215 C58.1202,36.6465 57.4562,37.5465 57.4562,39.0735 L57.4562,46.4275 C57.4562,48.3115 58.8232,48.6965 60.8742,48.6965 C63.3592,48.6965 64.7852,47.8315 64.7852,46.3235 L64.7892,38.6585 C64.7892,36.1545 63.1712,36.1545 61.2982,36.1545" id="Fill-36" fill="#FEFEFE"></path>
        </g>
    </g>
</svg>

<svg xmlns="http://www.w3.org/2000/svg" xmlns:xlink="http://www.w3.org/1999/xlink" width="150" height="150"><defs><path id="A" d="M100 0v100H0V0z"/></defs><g transform="translate(25 25)" fill-rule="evenodd"><mask id="B" fill="#fff"><use xlink:href="#A"/></mask><path d="M98 50c0 26.51-21.49 48-48 48S2 76.51 2 50 23.49 2 50 2s48 21.5 48 48" stroke="#fff" fill="#b4b2b2" mask="url(#B)"/><path d="M96.622 50c0 25.75-20.874 46.623-46.622 46.623S3.377 75.75 3.377 50 24.25 3.377 50 3.377 96.622 24.25 96.622 50" fill="#1d428a"/><path d="M50 89.755c-21.958 0-39.757-17.8-39.757-39.755S28.042 10.244 50 10.244 89.757 28.042 89.757 50 71.957 89.755 50 89.755z" fill="#c8102e"/><g fill="#fefefe"><path d="M50 87.475c-15.88 0-29.473-9.93-34.922-23.903C21.74 72.7 34.894 78.912 50 78.912s28.26-6.22 34.923-15.34C79.474 77.544 65.88 87.475 50 87.475m0-74.952c15.88 0 29.475 9.932 34.923 23.906C78.26 27.3 65.108 21.088 50 21.088S21.74 27.3 15.078 36.43C20.526 22.455 34.12 12.523 50 12.523M12.553 51.17h7.317v-2.34h-7.317a38.11 38.11 0 0 1 .163-2.634C15.3 33.142 31.036 23.068 50 23.068s34.7 10.074 37.285 23.13c.088.868.136 1.748.163 2.633H80.13v2.34h7.318c-.027.886-.075 1.766-.163 2.635C84.7 66.858 68.963 76.93 50 76.93S15.3 66.86 12.716 53.804c-.088-.87-.135-1.75-.163-2.635M50 10.243c-21.92 0-39.756 17.835-39.756 39.757S28.08 89.755 50 89.755 89.757 71.92 89.757 50 71.922 10.243 50 10.243M33.2 63.67h2.813V51.04H33.2z"/><path d="M43.975 51.045H43.9l-4.212-.006-.143.008c-.85 0-1.388.403-1.52 1.134a1.06 1.06 0 0 0-.023.2c-.003.026-.195 2.393.038 3.06.377 1.087 1.254 1.5 2.06 1.74l.084.024a1.04 1.04 0 0 1 .156.049c.1.036.15.084.188.144l.012 4.548-2.32.007.01 1.683 3.054.003c1.06-.046 1.8-.5 2.06-1.3.077-.617.087-4.852.026-5.736-.02-.334-.172-.602-.48-.845a3.59 3.59 0 0 0-.457-.294l-.52-.256c-.66-.322-1.407-.688-1.407-1.53l.002-.72h2.208c.453 0 .814-.222 1.05-.64.178-.32.226-.64.225-.658a3.46 3.46 0 0 0 .001-.531l-.005-.085zM55.9 53.88a4.23 4.23 0 0 1 .087-.78l.05-.05a2.45 2.45 0 0 1 .397-.028l.057.001c.953.01.98.297.98 2.022v5.274l-.01.462a2.68 2.68 0 0 1-.052.427l-.05.05a3.46 3.46 0 0 1-.502.037c-.35 0-.593-.076-.744-.23-.224-.23-.23-.617-.217-1.062v-5.326l.005-.797m.927-2.848c-.633 0-1.293.02-1.824.17-1.377.332-2.047 1.252-2.047 2.813v7.513c0 1.925 1.377 2.32 3.444 2.32 2.505 0 3.94-.885 3.94-2.426l.004-7.83c0-2.56-1.63-2.56-3.518-2.56m10.035 5.374C65.52 51.543 63.364 51 62.47 51a1.52 1.52 0 0 0-.377.039l-.067.018-.001 12.62 2.847.004v-5.077l1.983 5.077h2.894V51.05H66.86v5.355zm-38.22.236l-1.582.002v-3.668h.988c.312.04.6.16.6.536l-.007 3.13m1.136-5.608l-7.183.01-.004.086c-.001.015-.06 1.503 1.6 1.85v10.693h2.9V58.3h2.448c1.292 0 2.033-.85 2.033-2.332l.007-.452c0-3.578-.145-4.295-1.8-4.48m22.305.02H45.5v1.986h1.876V63.7h2.893V53.03l.105.003c.517 0 .93-.158 1.224-.47.525-.552.488-1.385.487-1.42l-.005-.086zm25.33-.01h-.085l-4.213-.006-.142.008c-.85 0-1.388.403-1.52 1.134-.023.12-.023.2-.023.2-.003.026-.196 2.393.038 3.06.377 1.087 1.254 1.5 2.06 1.74l.084.024a.91.91 0 0 1 .156.05c.1.036.152.084.2.144l.012 4.548-2.32.007.008 1.683 3.056.003c1.058-.046 1.8-.5 2.06-1.3.077-.617.087-4.852.027-5.736-.02-.334-.173-.602-.482-.845a3.57 3.57 0 0 0-.456-.294l-.52-.256c-.66-.322-1.407-.688-1.407-1.53l.001-.72h2.207c.454 0 .815-.222 1.05-.64.178-.32.227-.64.226-.658.02-.2.01-.403.001-.53l-.005-.085zM51.598 38.1h.48.076c.736.012 1 .016 1 1.312l-.023 1.706a.6.6 0 0 1-.156.41.32.32 0 0 1-.235.102h-1.132V38.1zm-.008 5.155h.488c.47.01 1.258.154 1.258.998l.056 2.33.064.805c.202.736.774 1.177 1.667 1.273h.824v-4.495c0-.386-.2-.926-.513-1.312l-.06-.082c.452-.507.627-1.018.627-1.798l.003-.44c0-3.492-.14-4.2-1.76-4.37H48.78V48.48h2.8v-5.236zm17.447-7.1h-2.74l-.01 12.32 2.75.002zm-26.32 12.338l2.82-.004.004-10.413.103.002c.506 0 .9-.154 1.197-.46.5-.538.474-1.35.472-1.382l-.004-.083h-6.423v1.935h1.83V48.49zm29.592 0l2.823-.004V38.075l.104.002c.508 0 .9-.155 1.2-.46.5-.54.475-1.35.473-1.382l-.005-.083H70.48v1.935h1.83V48.49zM39.4 46.5h-2.954v-2.995h2.025V40.82h-2.025v-2.774H39.4v-1.893h-5.695l-.01 12.32H39.4zm-10.242 0h-1.56v-8.413c.967-.04 1.172.045 1.188.053.364.143.357.818.357.836.102.974.027 6.75.016 7.524m.974-10.345h-7.026l-.01.075c-.005.03-.1.738.367 1.277.3.344.73.536 1.316.574v10.38h5.232c1.193 0 1.994-1.014 1.994-2.522l.002-5.718c.002-3.155.003-4.003-1.875-4.065m30.244 2.786c.014-.326.042-.57.087-.765l.05-.047a2.38 2.38 0 0 1 .392-.027h.056c.947.012.974.293.974 1.98v5.16l-.01.453a3.11 3.11 0 0 1-.05.417l-.052.05a3.26 3.26 0 0 1-.498.037c-.345 0-.587-.075-.737-.227-.223-.226-.23-.603-.216-1.04V39.72l.004-.78m.92-2.787c-.628 0-1.283.02-1.8.167-1.367.325-2.03 1.225-2.03 2.752v7.354c0 1.884 1.367 2.27 3.418 2.27 2.485 0 3.9-.865 3.9-2.373l.004-7.665c0-2.504-1.618-2.504-3.5-2.504"/></g></g></svg>
